static/fa/svgs/solid/clipboard-check.svg

<svg xmlns="http://www.w3.org/2000/svg" viewBox="0 0 384 512"><!--! Font Awesome Free 6.1.1 by @fontawesome - https://fontawesome.com License - https://fontawesome.com/license/free (Icons: CC BY 4.0, Fonts: SIL OFL 1.1, Code: MIT License) Copyright 2022 Fonticons, Inc.--><path d="M336 64h-53.88C268.9 26.8 233.7 0 192 0s-76.9 26.8-90.1 64H48C21.5 64 0 85.48 0 112v352c0 26.5 21.5 48 48 48h288c26.5 0 48-21.48 48-48V112c0-26.52-21.5-48-48-48zm-144 0c17.67 0 32 14.33 32 32s-14.33 32-32 32-32-14.3-32-32 14.3-32 32-32zm90.9 198.8-88 112a23.932 23.932 0 0 1-16.53 9.062c-.77-.762-1.57.138-2.37.138a23.982 23.982 0 0 1-15.62-5.781l-56-48c-10.06-8.625-11.22-23.78-2.594-33.84 8.609-10.06 23.77-11.22 33.84-2.594l36.98 31.69 72.52-92.28c8.188-10.44 23.3-12.22 33.7-4.062C289.3 237.3 291.1 252.4 282.9 262.8z"/></svg>

<svg xmlns="http://www.w3.org/2000/svg" viewBox="0 0 384 512"><!--! Font Awesome Free 6.1.1 by @fontawesome - https://fontawesome.com License - https://fontawesome.com/license/free (Icons: CC BY 4.0, Fonts: SIL OFL 1.1, Code: MIT License) Copyright 2022 Fonticons, Inc. --><path d="M336 64h-53.88C268.9 26.8 233.7 0 192 0S115.1 26.8 101.9 64H48C21.5 64 0 85.48 0 112v352C0 490.5 21.5 512 48 512h288c26.5 0 48-21.48 48-48v-352C384 85.48 362.5 64 336 64zM192 64c17.67 0 32 14.33 32 32s-14.33 32-32 32S160 113.7 160 96S174.3 64 192 64zM282.9 262.8l-88 112c-4.047 5.156-10.02 8.438-16.53 9.062C177.6 383.1 176.8 384 176 384c-5.703 0-11.25-2.031-15.62-5.781l-56-48c-10.06-8.625-11.22-23.78-2.594-33.84c8.609-10.06 23.77-11.22 33.84-2.594l36.98 31.69l72.52-92.28c8.188-10.44 23.3-12.22 33.7-4.062C289.3 237.3 291.1 252.4 282.9 262.8z"/></svg>
